X:1
T:Valses oubliées
T:Première Valse oubliée
T:S. 215/1
T:Franz Liszt
C:Franz Liszt
%%score { 1 | ( 2 3 ) }
L:1/8
Q:1/4=255
M:3/4
K:C
V:1 treble nm="Piano" snm="Pno."
V:2 treble 
V:3 treble 
V:1
"^Allegro"!p! .[^gbe']2 | .[^gbf']2 z2 .[gbe']2 | .[^gbf']2 z2 .[f^g^c']2 | .[f^gd']2 z2 z2 | %4
 z2 z2 .[df^a]2 | .[dfb]2 z2 .[df^a]2 | .[dfb]2 z2 .[Bd=g]2 | .[Bd^g]2 z2 z2 | z2 z2 .[^GBe]2 | %9
 .[^GBf]2 z2 .[F^G^c]2 | .[F^Gd]2 z2 .[DF^A]2 | .[DFB]2 z2 z2 | .[B,D=G]2 z2 z2 | .[B,D^G]2 z2 z2 | %14
 z6 | z2 z2!mp! (D2 | ^D4 ^E2) ||[K:F#]"_con grazia" (D3 CEG | d3 cGE | D3 CEG | d3 cGE) | %21
 (D3 CFA | d3 cfa | d'c'd'c'af | dcdcAF) |"^sempre legato" (D3 CEG | d3 cGE | D3 CEG | d3 cGE) | %29
 (D3 CFA | d3 cfa | d'c'd'c'af | dcdcAF) | (F3 E^^G^B | f3 e^B^^G | F3 E^^G^B | f3 e^B^^G) | %37
 (F3 EAc | f3 eac' | f'e'f'e'c'a | fefecA) | (F3 E^^G^B | f3 e^B^^G | F3 E^^G^B | f3 e^B^^G) | %45
 (F3 EAc | f3 eac' | f'e'f'e'c'a | fefecA) |!p!"^scherzando\nnon legato"{/A} G^^FGGgG | %50
{/A} G^^FGGgG |{/A} G^^FGGgG |{/A} G^^FGGgG | (agedGc | agedGc | agedGc | aged .G) z | %57
{/B} =AGAA=aA |{/B} =AGAA=aA |{/B} =AGAA=aA |{/B} =AGAA=aA | (b=af=e=Af | b=af=e=Af | b=af=e=Af | %64
 b=af=e .=A) z |!p!"_sempre"{/c} BABBbB |{/c} BABBbB |{/c} BABBbB |{/c} BABBbB | (c'bf=eBe | %70
 c'bf=eBe | c'bf=eBe | c'bf=e .B) z ||[K:C]{/d} cBccc'c |{/d} cBccc'c |{/d} cBccc'c |{/d} cBccc'c | %77
 (d'c'agca | d'c'agca | d'c'agca | d'c'ag .c) z | z6 | (!>![_d_d']3 _bge) | z6 | %84
 (!>![_d_d']3 _bge) | (_d_BABGE | _D_B,A,B,DE |!<(!"_cresc." G_B_deg_b) | %88
 .[^c^c']2 .[ee']2 .[gg']2!<)! ||[K:F#]!ff!!8va(! .[aa']2 z2 !>![aa']2- | [aa']2 ([ee']2 [aa']2 | %91
 [=a=a']2) z .[aa'] .[aa']2 | ([gg']2 [ee']2 [cc']2) | .[gg']2 z .[gg'] .[gg']2 | %94
 ([=g=g']2 [=e=e']2 [cc']2 | [^B^b]2 [cc']2!<(! [dd']2 | [=e=e']2 [ff']2 [=g=g']2)!<)! | %97
 .[^a^a']2 z2 !>![aa']2- | [aa']2 ([ee']2 [aa']2 | [=a=a']2) z .[aa'] .[aa']2 | %100
 ([gg']2 [ee']2 [cc']2) | .[gg']2 z .[gg'] .[gg']2 | ([=g=g']2 [=e=e']2 [cc']2) | %103
 .[=g=g']2 z .[gg'] .[gg']2 | ([ff']2 [dd']2 [^B^b]2) | .[ff']2 z .[ff'] .[ff']2 | %106
 ([^e^e']2 [=d=d']2 b2)!8va)! ||[K:C] .[=f=f']2 z2!p! .[^gbe']2 | .[^gbf']2 z2 .[gbe']2 | %109
 .[^gbf']2 z2 .[fg^c']2 | .[f^gd']2 z2 z2 | z2 z2 .[df^a]2 | .[dfb]2 z2 .[df^a]2 | %113
 .[dfb]2 z2 .[Bd=g]2 | .[Bd^g]2 z2 z2 | z2 z2 .[^GBe]2 | .[^GBf]2 z2 .[FG^c]2 | %117
 .[F^Gd]2 z2 .[DF^A]2 | .[DFB]2 z2 z2 | .[B,D=G]2 z2 z2 | .[B,D^G]2 z2 z2 | z6 | z2 z2!mp! (D2 | %123
 _E4 F2) ||[K:Bb]"_con grazia" (E3 D^FA | e3 dA^F | E3 D^FA | e3 dA^F) | (E3 DGB | e3 dgb | %130
 e'd'e'd'bg | ededBG) |"_con grazia" (E3 D^FA | e3 dA^F | E3 D^FA | e3 dA^F) | (E3 DGB | e3 dgb | %138
 e'd'e'd'bg | ededBG) |!p! (EDEDED | EDEDED | EDEDED | EDEDED) ||[K:F#] (DCDCDC | DCDCDC | %146
 DCDCDC) | (DCDCDC | DCDCDC | DCDCDC) | (^B,CB,CB,C | ^B,CB,CB,C | ^B,CB,CB,C) | z6 | (dcdcdc) | %155
 z6 |!8va(!{/d'} !trill(!Tc'6 | c'6 | c'6 | !trill)!c'6({^bc'} |!p! .[aa']2) z2 (!>![aa']2- | %161
 [aa']2 [ee']2 [aa']2 | .[=a=a']2) z .[aa'] .[aa']2 | ([gg']2 [ee']2 [cc']2) | %164
 .[gg']2 z .[gg'] .[gg']2 | ([=g=g']2 [=e=e']2 [cc']2 | [^B^b]2 [cc']2 [dd']2 | %167
 [=e=e']2 [ff']2 [=g=g']2 | .[^a^a']2) z2 (!>![aa']2- | [aa']2 [^e^e']2 [aa']2 | %170
 .[=a=a']2) z .[aa'] .[aa']2 | ([gg']2 [ee']2 [cc']2) | .[gg']2 z .[gg'] .[gg']2 | %173
 ([=g=g']2 [=e=e']2 [cc']2 | [^B^b]2 [cc']2 [dd']2 | [=e=e']2 [ff']2 [=g=g']2- | %176
 [gg']2) ([cc']2 [dd']2 | [=e=e']2 [ff']2 [=g=g']2- | [gg']2) ([=d=d']2 [=e=e']2 | %179
 [^e^e']2 [^^f^^f']2 [^g^g']2- | [gg']2) ([=d=d']2 [=e=e']2 | [^e^e']2 [^^f^^f']2 [gg']2- | %182
 [gg']2) ([^d^d']2 [^e^e']2 | [ff']4 [gg']2 | [=a=a']2) z2 z2 | [=a=a']6- | [aa']2 ([dd']2 [cc']2 | %187
 [dd']4 [ee']2 | [=a=a']2) z2 z2 | [=a=a']6- | [aa']2 ([dd']2 [cc']2 | [dd']4 [ee']2 | %192
 [=a=a']6)!8va)! | z6 | z6 | z6 | z6 | z6 | (d6 | c2 A2 F2) | z6 | z6 | (d6 | c2 A2 F2) | z6 | z6 | %206
 z6 | z6 | z6 | !fermata!z6 |] %210
V:2
"_senza Ped." .[^ce]2 | .[df]2 z2 .[^ce]2 | .[df]2 z2 .[^A^c]2 | .[Bd]2 z2 z2 | z2 z2 .[=G^A]2 | %5
 .[^GB]2 z2 .[=G^A]2 | .[^GB]2 z2 .[E=G]2 | .[F^G]2 z2 z2 | z2 z2 .[^CE]2 | %9
 .[DF]2 z2[K:bass] .[^A,^C]2 | .[B,D]2 z2 .[=G,^A,]2 | .[^G,B,]2 z2 z2 | .[E,=G,]2 z2 z2 | %13
 .[F,^G,]2 z2 z2 |"^1" z6 | z6 | z6 ||[K:F#] z2!ped! ([E,A,]2 [B,,G,]2)!ped-up! | %18
 z2!ped! ([G,E]2 [B,D]2)!ped-up! | z2!ped! ([E,A,]2 [B,,G,]2)!ped-up! | %20
 z2!ped! ([G,E]2 [B,D]2)!ped-up! | z2!ped! ([F,B,]2 [C,A,]2)!ped-up! | %22
 z2!ped! .[^^G,E]2 .[A,F]2!ped-up! | z2[K:treble]!ped! .[^B,^^G]2 .[CA]2!ped-up! | z6 | %25
[K:bass] z2!ped! ([E,A,]2 [B,,G,]2)!ped-up! | z2"_Ped.simile"!ped! ([G,E]2 [B,D]2)!ped-up! | %27
 z2!ped! ([E,A,]2 [B,,G,]2)!ped-up! | z2!ped! ([G,E]2 [B,D]2)!ped-up! | %29
 z2!ped! ([F,B,]2 [C,A,]2)!ped-up! | z2!ped! .[^^G,E]2 .[A,F]2!ped-up! | %31
 z2[K:treble]!ped! .[^B,^^G]2 .[CA]2!ped-up! | z6 |[K:bass] z2!ped! ([^^G,C]2 [D,^B,]2)!ped-up! | %34
 z2!ped! ([^B,^^G]2 [DF]2)!ped-up! | z2!ped! ([^^G,C]2 [D,^B,]2)!ped-up! | %36
 z2!ped! ([^B,^^G]2 [DF]2)!ped-up! | z2!ped! ([A,D]2 [E,C]2)!ped-up! | %38
 z2[K:treble]!ped! .[^B,^^G]2 .[CA]2!ped-up! | z2!ped! .[=E^B]2 .[^Ec]2!ped-up! | z6 | %41
[K:bass] z2!ped! ([^^G,C]2 [D,^B,]2)!ped-up! | z2!ped! ([^B,^^G]2 [DF]2)!ped-up! | %43
 z2!ped! ([^^G,C]2 [D,^B,]2)!ped-up! | z2!ped! ([^B,^^G]2 [DF]2)!ped-up! | %45
 z2!ped! ([A,D]2 [E,C]2)!ped-up! | z2[K:treble]!ped! .[^B,^^G]2 .[CA]2!ped-up! | %47
 z2!ped! .[=E^B]2 .[^Ec]2!ped-up! | z6 |[K:bass]!ped! .C,2 .[B,E]2 .[B,E]2 | %50
 .[B,=E]2!ped-up! .=D,2 .[B,^E]2 |!ped! .C,2 .[B,E]2 .[B,E]2 | .[B,=E]2!ped-up! .=D,2 .[B,^E]2 | %53
!ped! .C,2 .[B,E]2 .[B,D]2 | .[B,D]2 .[CE]2 .[A,C]2 | .[B,D]2 .[CE]2 .[A,C]2 | %56
 .[B,D]2 .[B,E]2!ped-up! z2 |!ped! .C,2 .[CF]2 .[CF]2 | .[CD]2!ped-up! .=E,2 .[C=E]2 | %59
 .C,2 .[CF]2 .[CF]2 | .[CD]2 .=E,2 .[C=E]2 | .C,2 .[CF]2 .[CD]2 | .[C=E]2 .[^DF]2 .[^B,D]2 | %63
 .[C=E]2 .[^DF]2 .[^B,D]2 | .[C=E]2 .[CE]2 z2 |!ped! .=E,2 .[=DG]2 .[DG]2 | %66
 .[=D=G]2!ped-up! .=F,2 .[D^G]2 |!ped! .=E,2 .[=DG]2 .[DG]2 | .[=D=G]2!ped-up! .=F,2 .[D^G]2 | %69
!ped! =E,2 [=DG]2 [DF]2 | .[=DF]2 .[=EG]2 .[CE]2 | .[=DF]2 .[=EG]2 .[CE]2 | %72
 .[=DF]2 .[DG]2!ped-up! z2 ||[K:C]!ped! E,2[K:treble] .[EA]2 .[EA]2 | .[E^F]2!ped-up! .G,2 .[EG]2 | %75
!ped! .E,2 .[EA]2 .[EA]2!ped-up! | .[E^F]2 .G,2 .[EG]2 |!ped! .E,2!ped-up! .[EA]2 .[E^F]2 | %78
 .[EG]2 .[^FA]2 .[^DF]2 | .[EG]2 .[^FA]2 .[^DF]2 | .[EG]2 .[EG]2 z2 |!p! (!>!_d3 _BGE) | %82
!ped! z2!ped-up! .[^FA]2 .[G_B]2 | (!>!_d3 _BGE) |!ped! z2 .[^FA]2 .[G_B]2!ped-up! | z6 | z6 | z6 | %88
 z6 ||[K:F#][K:bass]!ped! z2[K:treble]"^appasionata" [EA]2 [EA]2!ped-up! | [EA]2 [EA]2 [EA]2 | %91
 [E=A]2 [EA]2 [EA]2 |!ped! [EG]2 [EG]2 [EG]2!ped-up! |!ped! [EG]2 [EG]2 [EG]2!ped-up! | %94
!ped! [=E=G]2 [EG]2 [EG]2!ped-up! | [=E=G]2 [EG]2 [EG]2 | [=E=G]2 [EG]2 [EG]2 | %97
[K:bass]!ped! z2[K:treble] [EA]2 [EA]2!ped-up! | [EA]2 [EA]2 [EA]2 | %99
!ped! [E=A]2 [EA]2 [EA]2!ped-up! |!ped! [EG]2 [EG]2 [EG]2!ped-up! | %101
!ped! [EG]2 [EG]2 [EG]2!ped-up! |!ped! [=E=G]2 [EG]2 [EG]2!ped-up! | [=E=G]2 [EG]2 [EG]2 | %104
!ped! [F=A]2 [FA]2 [FA]2!ped-up! | [F=A]2 [FA]2 [FA]2 |!ped! [G=B]2 [GB]2 [GB]2!ped-up! || %107
[K:C] .[F^GB]2 z2 .[^ce]2 | .[df]2 z2 .[^ce]2 | .[df]2 z2 .[^A^c]2 | .[Bd]2 z2 z2 | %111
 z2 z2 .[=G^A]2 | .[^GB]2 z2 .[=G^A]2 | .[^GB]2 z2 .[E=G]2 | .[F^G]2 z2 z2 | z2 z2 .[^CE]2 | %116
 .[DF]2[K:bass] z2 .[^A,^C]2 | .[B,D]2 z2 .[=G,^A,]2 | .[^G,B,]2 z2 z2 | .[E,=G,]2 z2 z2 | %120
 .[F,^G,]2 z2 z2 |"^1" z6 | z6 | z6 ||[K:Bb] z2"_Ped.come prima"!ped-up!!ped! ([^F,B,]2 [C,A,]2) | %125
 z2!ped! ([A,^F]2 [CE]2)!ped-up! | z2!ped! ([^F,B,]2 [C,A,]2)!ped-up! | %127
 z2!ped! ([A,^F]2 [CE]2)!ped-up! | z2!ped! ([G,C]2 [D,B,]2)!ped-up! | %129
 z2[K:treble]!ped! .[A,^F]2 .[B,G]2!ped-up! | z2!ped! .[^CA]2 .[DB]2!ped-up! | z6 | %132
[K:bass] z2"_Ped.come prima"!ped! ([^F,B,]2 [C,A,]2)!ped-up! | z2!ped! ([A,^F]2 [CE]2)!ped-up! | %134
 z2!ped! ([^F,B,]2 [C,A,]2)!ped-up! | z2!ped! ([A,^F]2 [CE]2)!ped-up! | %136
 z2!ped! ([G,C]2 [D,B,]2)!ped-up! | z2[K:treble]!ped! .[A,^F]2 .[B,G]2!ped-up! | %138
 z2!ped! .[^CA]2 .[DB]2!ped-up! | z6 |"_senza Ped." z6 |!p! .[GB]2 z2 z2 | .[GB]2 z2 z2 | %143
 .[^FB]2 z2 z2 ||[K:F#] z6 | .[FA]2 z2 z2 | .[FA]2 z2 z2 | .[EA]2 z2 z2 | z6 | .[EA]2 z2 z2 | %150
 .[=EA]2 z2 z2 | .[^EA]2 z2 z2 | .[FA]2 z2 z2 | (GFGFGF) | z6 | (gfgfgf) | z6 | .[Afa]2 z2 z2 | %158
 .[^^Ge^^g]2 z2 z2 | .[Afa]2 z2 z2 | %160
[K:bass]!ped! F,,"^legato""^amoroso"C,E,B,[K:treble]CE!ped-up! | BEC[K:bass]B,E,C, | %162
!ped! F,,C,E,B,[K:treble]CE!ped-up! | BEC[K:bass]B,E,C, |!ped! F,,C,=E,B,[K:treble]C=E!ped-up! | %165
 B=EC[K:bass]B,=E,C, | F,,C,=E,B,[K:treble]C=E | B=EC[K:bass]B,=E,C, | %168
!ped! F,,C,^E,B,[K:treble]C^E!ped-up! | BEC[K:bass]B,E,C, |!ped! F,,C,E,B,[K:treble]CE!ped-up! | %171
 BEC[K:bass]B,E,C, |!ped! F,,C,=E,B,[K:treble]C=E!ped-up! | B=EC[K:bass]B,=E,C, | %174
 F,,C,=E,B,[K:treble]C=E | B=EC[K:bass]B,=E,C, |!ped! F,,C,=E,B,[K:treble]C=E!ped-up! | %177
 B=EC[K:bass]B,=E,C, |!ped! F,,=D,^E,B,[K:treble]=D^E!ped-up! | BE=D[K:bass]B,E,=D, | %180
!ped! F,,=D,^E,B,[K:treble]=D^E!ped-up! | BE=D[K:bass]B,E,=D, | %182
!ped! F,,^D,F,B,[K:treble]DF!ped-up! | BFD[K:bass]B,F,D, |!ped! F,,D,^E,B,[K:treble]D^E!ped-up! | %185
 BED[K:bass]B,E,D, | F,,D,^E,B,[K:treble]D^E | BED[K:bass]B,E,D, | %188
!ped! F,,D,E,B,[K:treble]DE!ped-up! |"^diminuendo" BED[K:bass]B,E,D, | F,,D,E,B,[K:treble]DE | %191
 BED[K:bass]B,E,D, |!ped! F,,D,E,B,[K:treble]DE!ped-up! | (B6- | B6 | D4 E2 |"^dolce" D6 | %197
 C2 F2 A2) | z6 | z6 | (D6 | C2 F2 A2) | z6 | z6 |"^dolcissimo" (D6 | C2) z2 z2 | %206
"^un poco rit." (E6 | D2 C2 A,2 | C6) | !fermata!C6 |] %210
V:3
 x2 | x6 | x6 | x6 | x6 | x6 | x6 | x6 | x6 | x4[K:bass] x2 | x6 | x6 | x6 | x6 | x6 | x6 | x6 || %17
[K:F#] x6 | x6 | x6 | x6 | x6 | x6 | x2[K:treble] x4 | x6 |[K:bass] x6 | x6 | x6 | x6 | x6 | x6 | %31
 x2[K:treble] x4 | x6 |[K:bass] x6 | x6 | x6 | x6 | x6 | x2[K:treble] x4 | x6 | x6 |[K:bass] x6 | %42
 x6 | x6 | x6 | x6 | x2[K:treble] x4 | x6 | x6 |[K:bass] x6 | x6 | x6 | x6 | x6 | x6 | x6 | x6 | %57
 x6 | x6 | x6 | x6 | x6 | x6 | x6 | x6 | x6 | x6 | x6 | x6 | x6 | x6 | x6 | x6 || %73
[K:C] x2[K:treble] x4 | x6 | x6 | x6 | x6 | x6 | x6 | x6 | x6 | x6 | x6 | x6 | x6 | x6 | x6 | x6 || %89
[K:F#][K:bass] [C,,C,]2[K:treble] CB,CB, | CB,CB,CB, | CB,CB,CB, | CB,CB,CB, | CA,CA,CA, | %94
 CA,CA,CA, | CA,CA,CA, | CA,CA,CA, |[K:bass] [C,,C,]2[K:treble] CB,CB, | CB,CB,CB, | CB,CB,CB, | %100
 CB,CB,CB, | CA,CA,CA, | CA,CA,CA, | CA,CA,CA, | D^B,DB,DB, | D^B,DB,DB, | ^E=DEDED ||[K:C] x6 | %108
 x6 | x6 | x6 | x6 | x6 | x6 | x6 | x6 | x2[K:bass] x4 | x6 | x6 | x6 | x6 | x6 | x6 | x6 || %124
[K:Bb] x6 | x6 | x6 | x6 | x6 | x2[K:treble] x4 | x6 | x6 |[K:bass] x6 | x6 | x6 | x6 | x6 | %137
 x2[K:treble] x4 | x6 | x6 | x6 | x6 | x6 | x6 ||[K:F#] x6 | x6 | x6 | x6 | x6 | x6 | x6 | x6 | %152
 x6 | x6 | x6 | x6 | x6 | x6 | x6 | x6 |[K:bass] x4[K:treble] x2 | x3[K:bass] x3 | %162
 x4[K:treble] x2 | x3[K:bass] x3 | x4[K:treble] x2 | x3[K:bass] x3 | x4[K:treble] x2 | %167
 x3[K:bass] x3 | x4[K:treble] x2 | x3[K:bass] x3 | x4[K:treble] x2 | x3[K:bass] x3 | %172
 x4[K:treble] x2 | x3[K:bass] x3 | x4[K:treble] x2 | x3[K:bass] x3 | x4[K:treble] x2 | %177
 x3[K:bass] x3 | x4[K:treble] x2 | x3[K:bass] x3 | x4[K:treble] x2 | x3[K:bass] x3 | %182
 x4[K:treble] x2 | x3[K:bass] x3 | x4[K:treble] x2 | x3[K:bass] x3 | x4[K:treble] x2 | %187
 x3[K:bass] x3 | x4[K:treble] x2 | x3[K:bass] x3 | x4[K:treble] x2 | x3[K:bass] x3 | %192
 x4[K:treble] x2 | x6 | x6 | x6 | x6 | x6 | x6 | x6 | x6 | x6 | x6 | x6 | x6 | x6 | x6 | x6 | x6 | %209
 x6 |] %210

